src/icons/solid/fence.svg

<svg xmlns="http://www.w3.org/2000/svg" viewBox="0 0 512 512"><!--! Font Awesome Pro 6.7.2 by @fontawesome - https://fontawesome.com License - https://fontawesome.com/license (Commercial License) Copyright 2024 Fonticons, Inc. --><path d="M76.8 38.4C73.8 34.4 69 32 64 32s-9.8 2.4-12.8 6.4L6.4 98.1C2.2 103.7 0 110.4 0 117.3L0 448c0 17.7 14.3 32 32 32l64 0c17.7 0 32-14.3 32-32l0-32 32 0 0-64-32 0 0-128 32 0 0-64-32 0 0-42.7c0-6.9-2.2-13.7-6.4-19.2L76.8 38.4zm192 0c-3-4-7.8-6.4-12.8-6.4s-9.8 2.4-12.8 6.4L198.4 98.1c-4.2 5.5-6.4 12.3-6.4 19.2L192 448c0 17.7 14.3 32 32 32l64 0c17.7 0 32-14.3 32-32l0-32 32 0 0-64-32 0 0-128 32 0 0-64-32 0 0-42.7c0-6.9-2.2-13.7-6.4-19.2L268.8 38.4zM448 32c-5 0-9.8 2.4-12.8 6.4L390.4 98.1c-4.2 5.5-6.4 12.3-6.4 19.2L384 448c0 17.7 14.3 32 32 32l64 0c17.7 0 32-14.3 32-32l0-330.7c0-6.9-2.2-13.7-6.4-19.2L460.8 38.4c-3-4-7.8-6.4-12.8-6.4z"/></svg>

<svg xmlns="http://www.w3.org/2000/svg" viewBox="0 0 512 512"><!--! Font Awesome Pro 6.5.2 by @fontawesome - https://fontawesome.com License - https://fontawesome.com/license (Commercial License) Copyright 2024 Fonticons, Inc. --><path d="M76.8 38.4C73.8 34.4 69 32 64 32s-9.8 2.4-12.8 6.4L6.4 98.1C2.2 103.7 0 110.4 0 117.3V448c0 17.7 14.3 32 32 32H96c17.7 0 32-14.3 32-32V416h32V352H128V224h32V160H128V117.3c0-6.9-2.2-13.7-6.4-19.2L76.8 38.4zm192 0c-3-4-7.8-6.4-12.8-6.4s-9.8 2.4-12.8 6.4L198.4 98.1c-4.2 5.5-6.4 12.3-6.4 19.2V448c0 17.7 14.3 32 32 32h64c17.7 0 32-14.3 32-32V416h32V352H320V224h32V160H320V117.3c0-6.9-2.2-13.7-6.4-19.2L268.8 38.4zM448 32c-5 0-9.8 2.4-12.8 6.4L390.4 98.1c-4.2 5.5-6.4 12.3-6.4 19.2V448c0 17.7 14.3 32 32 32h64c17.7 0 32-14.3 32-32V117.3c0-6.9-2.2-13.7-6.4-19.2L460.8 38.4c-3-4-7.8-6.4-12.8-6.4z"/></svg>
